svgs/sharp-solid/microscope.svg

<svg xmlns="http://www.w3.org/2000/svg" viewBox="0 0 512 512"><!--! Font Awesome Pro 6.6.0 by @fontawesome - https://fontawesome.com License - https://fontawesome.com/license (Commercial License) Copyright 2024 Fonticons, Inc. --><path d="M160 0l96 0 0 32 32 0 0 288-32 0 0 32-96 0 0-32-32 0 0-288 32 0 0-32zM32 448l288 0c70.7 0 128-57.3 128-128s-57.3-128-128-128l0-64c106 0 192 86 192 192c0 49.2-18.5 94-48.9 128l16.9 0 32 0 0 64-32 0-160 0L32 512 0 512l0-64 32 0zm80-64l192 0 16 0 0 32-16 0-192 0-16 0 0-32 16 0z"/></svg>

<svg xmlns="http://www.w3.org/2000/svg" viewBox="0 0 512 512"><!--! Font Awesome Pro 6.4.0 by @fontawesome - https://fontawesome.com License - https://fontawesome.com/license (Commercial License) Copyright 2023 Fonticons, Inc. --><path d="M160 0h96V32h32V320H256v32H160V320H128V32h32V0zM32 448H320c70.7 0 128-57.3 128-128s-57.3-128-128-128V128c106 0 192 86 192 192c0 49.2-18.5 94-48.9 128H480h32v64H480 320 32 0V448H32zm80-64H304h16v32H304 112 96V384h16z"/></svg>
